X:3162
T:Cold and ??ow
M:3/2
L:1/4
K:C
A2A c2d|esfgs G2G|A2A e2c|A3c3:|:c2c c2B/2sc/2s|d2d d2d |e2e a2g|e3g3|c2
c c2B/2sc/2s|d2d d>ef|e>dc3/2 B>AG|A3E3:|


